static/images/mobile/copyright/wiktionary-wordmark-fr.svg

<?xml version="1.0" encoding="UTF-8"?>
<svg xmlns="http://www.w3.org/2000/svg" width="114" height="15" viewBox="0 0 114 15">
	<title>
		flowRoot1960
	</title>
	<g id="Page-1" fill="none" fill-rule="evenodd" stroke="none" stroke-width="1">
		<g id="Group-20" fill="#4D4D4D" fill-rule="nonzero">
			<path id="flowRoot1960" d="M4.54844839,14.9438843 L1.69664422,3.40400109 C1.42590054,2.34415499 1.25142341,1.76435664 1.17321128,1.66459008 C1.09499606,1.56485544 0.767098082,1.51498015 0.189518875,1.51496419 L0,1.49625895 L0,0.92581322 L4.78309095,0.92581322 L4.78309095,1.49625895 L4.61162186,1.49625895 C4.02802041,1.49627491 3.65800832,1.52744498 3.50158405,1.58978511 C3.34515208,1.65214121 3.26693841,1.7955267 3.26694149,2.01995757 C3.26693841,2.22569916 3.3541762,2.68704168 3.52865796,3.40400109 L5.50506688,11.4557416 L8.58248949,1.09414435 L9.21421805,1.09414435 L12.2916407,11.7456408 L14.6019637,3.41333775 C14.8606567,2.46572303 14.9900101,1.93579998 14.9900255,1.82356859 C14.9900101,1.60537813 14.5207265,1.49627491 13.5821717,1.49625895 L13.4197283,1.49625895 L13.4197283,0.92581322 L17.0927799,0.92581322 L17.0927799,1.49625895 L16.9303364,1.51496419 C16.2865572,1.55239061 15.9300821,1.61161852 15.8609095,1.69264793 C15.791703,1.77370925 15.6006809,2.34415499 15.28784,3.40400109 L12.0209001,14.9438843 L11.4162439,14.9438843 L8.26662522,4.29240385 L5.17115282,14.9438843 L4.54844839,14.9438843 Z M20.8921784,4.61034491 L20.8921784,12.3441443 C20.8921753,13.1920244 20.9583553,13.6970018 21.0907214,13.8591085 C21.2230798,14.0211993 21.6592734,14.1271903 22.3993037,14.1770656 L22.5707728,14.1864022 L22.5707728,14.7662165 L17.4447437,14.7662165 L17.4447437,14.1864022 L17.6162128,14.1770656 C18.3442033,14.1271903 18.7758856,14.0196352 18.9112566,13.8544322 C19.0466262,13.6892133 19.1143109,13.185784 19.1143125,12.3441443 L19.1143125,7.03241708 C19.1143109,6.19077741 19.0466262,5.6889122 18.9112566,5.52680551 C18.7758856,5.36473074 18.3442033,5.25562753 17.6162128,5.19951183 L17.4447437,5.19015922 L17.4447437,4.61034491 L20.8921784,4.61034491 Z M19.1143125,2.76808704 L19.1143125,0.92581322 L20.8921784,0.92581322 L20.8921784,2.76808704 L19.1143125,2.76808704 Z M26.5596903,9.77244628 L26.5596903,12.3441443 C26.5596856,13.1795596 26.6213543,13.6829889 26.7446963,13.8544322 C26.868029,14.0258756 27.2335298,14.1334147 27.8411972,14.1770656 L28.0126662,14.1864022 L28.0126662,14.7662165 L23.112254,14.7662165 L23.112254,14.1864022 L23.2837246,14.1770656 C24.0117151,14.1271903 24.4433959,14.0196352 24.5787685,13.8544322 C24.7141365,13.6892133 24.7818212,13.185784 24.7818243,12.3441443 L24.7818243,2.42207217 C24.7818212,1.58044846 24.7141365,1.07701916 24.5787685,0.911784296 C24.4433959,0.746581348 24.0117151,0.639042224 23.2837246,0.589150965 L23.112254,0.57979835 L23.112254,0 L26.5596903,0 L26.5596903,9.31421598 L26.9838502,9.31421598 L29.2580751,7.05112231 C30.2327342,6.02246224 30.7200675,5.47070578 30.7200768,5.39588485 C30.7200675,5.27744498 30.5546161,5.21354076 30.2237177,5.20417218 C29.8928056,5.19483553 29.6641791,5.19015922 29.5378398,5.19015922 L29.3483225,5.19015922 L29.3483225,4.61034491 L33.1657693,4.61034491 L33.1657693,5.19015922 L32.9943002,5.19951183 C32.3565448,5.24314673 31.9489299,5.32264397 31.7714539,5.43797162 C31.5939595,5.55331523 31.0299157,6.09726721 30.0793225,7.06982755 L28.3646301,8.81857521 L31.3066816,12.4002441 C32.0527142,13.2730698 32.520493,13.7796113 32.7100226,13.9198846 C32.8995307,14.0601579 33.228932,14.1458795 33.6982263,14.1770656 L33.8696954,14.1864022 L33.8696954,14.7662165 L31.1171628,14.7662165 L26.9838502,9.77244628 L26.5596903,9.77244628 Z M40.3674788,14.7101008 C39.9162389,14.9033616 39.4860614,15 39.0769478,15 C38.0360949,15 37.2765162,14.7288061 36.7982116,14.1864022 C36.3198992,13.6440143 36.0807454,12.7805572 36.0807469,11.5960149 L36.0807469,5.367827 L34.6367951,5.367827 L34.6367951,4.61034491 L36.0807469,4.61034491 L36.0807469,2.76808704 L37.8676385,2.30985674 L37.8676385,4.61034491 L40.5930973,4.61034491 L40.5930973,5.367827 L37.8676385,5.367827 L37.8676385,11.839151 C37.8676339,12.7119767 37.9789376,13.3322977 38.201551,13.70013 C38.4241568,14.0679623 38.803193,14.2518705 39.3386643,14.2518705 C39.6214324,14.2518705 39.9643706,14.1552321 40.3674788,13.9619713 L40.3674788,14.7101008 Z M44.897879,4.61034491 L44.897879,12.3441443 C44.8978744,13.1920244 44.9640559,13.6970018 45.096422,13.8591085 C45.2287804,14.0211993 45.664974,14.1271903 46.4050028,14.1770656 L46.5764719,14.1864022 L46.5764719,14.7662165 L41.4504427,14.7662165 L41.4504427,14.1864022 L41.6219134,14.1770656 C42.3499038,14.1271903 42.7815846,14.0196352 42.9169572,13.8544322 C43.0523252,13.6892133 43.12001,13.185784 43.1200131,12.3441443 L43.1200131,7.03241708 C43.12001,6.19077741 43.0523252,5.6889122 42.9169572,5.52680551 C42.7815846,5.36473074 42.3499038,5.25562753 41.6219134,5.19951183 L41.4504427,5.19015922 L41.4504427,4.61034491 L44.897879,4.61034491 Z M43.1200131,2.76808704 L43.1200131,0.92581322 L44.897879,0.92581322 L44.897879,2.76808704 L43.1200131,2.76808704 Z M52.3522793,15 C50.9083244,15 49.7682046,14.5246286 48.9319186,13.5738857 C48.0956294,12.6231268 47.6774856,11.3279331 47.6774856,9.68828869 C47.6774856,8.04864424 48.0956294,6.7549987 48.9319186,5.80735207 C49.7682046,4.85973736 50.9083244,4.38591405 52.3522793,4.38591405 C53.8022411,4.38591405 54.9438641,4.85973736 55.777153,5.80735207 C56.6104233,6.7549987 57.0270747,8.04864424 57.0270747,9.68828869 C57.0270747,11.3279331 56.6089201,12.6231268 55.7726417,13.5738857 C54.9363433,14.5246286 53.7962251,15 52.3522793,15 L52.3522793,15 Z M52.3522793,14.4202017 C53.1524628,14.4202017 53.8172829,13.9728881 54.3467381,13.0782449 C54.8761794,12.1836017 55.1409116,11.053627 55.1409116,9.68828869 C55.1409116,8.33541524 54.8761794,7.2085527 54.3467381,6.30766915 C53.8172829,5.40680155 53.1524628,4.95635978 52.3522793,4.95635978 C51.5581012,4.95635978 50.8962907,5.40680155 50.3668463,6.30766915 C49.8373942,7.2085527 49.5726728,8.33541524 49.5726728,9.68828869 C49.5726728,11.053627 49.8358894,12.1836017 50.3623335,13.0782449 C50.8887698,13.9728881 51.5520851,14.4202017 52.3522793,14.4202017 L52.3522793,14.4202017 Z M61.7199182,6.51808704 C62.171149,5.80736803 62.6915723,5.27433276 63.2811914,4.91894931 C63.8707981,4.56359779 64.5296006,4.38591405 65.2576003,4.38591405 C66.0998963,4.38591405 66.7617068,4.672701 67.2430334,5.24625895 C67.7183253,5.81983287 67.9559744,6.60848503 67.9559852,7.61221543 L67.9559852,12.3441443 C67.9980901,13.2730698 68.0672796,13.7967524 68.1635523,13.9152083 C68.2598065,14.0336641 68.6929905,14.1209499 69.463109,14.1770656 L69.625554,14.1864022 L69.625554,14.7662165 L64.5085505,14.7662165 L64.5085505,14.1864022 L64.6709939,14.1770656 C65.4410939,14.1209499 65.8742794,14.0336641 65.9705506,13.9152083 C66.0668064,13.7967524 66.1359959,13.2730698 66.1781193,12.3441443 L66.1781193,7.90211461 C66.1781116,7.02930486 66.0683111,6.42301276 65.848718,6.08323828 C65.6291095,5.74346381 65.2365348,5.57358455 64.6709939,5.57356859 C64.2739018,5.57358455 63.8286825,5.70294113 63.3353392,5.96165427 C62.8419836,6.22039934 62.3035105,6.6116132 61.7199182,7.13529586 L61.7199182,12.3441443 C61.7199136,13.1920244 61.7860951,13.6970018 61.9184612,13.8591085 C62.0508196,14.0211993 62.4870132,14.1271903 63.227042,14.1770656 L63.3985111,14.1864022 L63.3985111,14.7662165 L58.272482,14.7662165 L58.272482,14.1864022 L58.4439526,14.1770656 C59.1719431,14.1271903 59.6036239,14.0196352 59.7389965,13.8544322 C59.8743645,13.6892133 59.9420492,13.185784 59.9420523,12.3441443 L59.9420523,7.03241708 C59.9420492,6.19077741 59.8743645,5.6889122 59.7389965,5.52680551 C59.6036239,5.36473074 59.1719431,5.25562753 58.4439526,5.19951183 L58.272482,5.19015922 L58.272482,4.61034491 L61.7199182,4.61034491 L61.7199182,6.51808704 Z M73.4159284,6.51808704 C73.8671591,5.80736803 74.3875825,5.27433276 74.9772015,4.91894931 C75.5668083,4.56359779 76.2256107,4.38591405 76.9536105,4.38591405 C77.7959065,4.38591405 78.457717,4.672701 78.9390435,5.24625895 C79.4143355,5.81983287 79.6519845,6.60848503 79.6519953,7.61221543 L79.6519953,12.3441443 C79.6941002,13.2730698 79.7632897,13.7967524 79.8595624,13.9152083 C79.9558167,14.0336641 80.3890007,14.1209499 81.1591191,14.1770656 L81.3215641,14.1864022 L81.3215641,14.7662165 L76.2045606,14.7662165 L76.2045606,14.1864022 L76.367004,14.1770656 C77.137104,14.1209499 77.5702896,14.0336641 77.6665607,13.9152083 C77.7628165,13.7967524 77.832006,13.2730698 77.8741294,12.3441443 L77.8741294,7.90211461 C77.8741217,7.02930486 77.7643213,6.42301276 77.5447282,6.08323828 C77.3251196,5.74346381 76.9325449,5.57358455 76.367004,5.57356859 C75.9699119,5.57358455 75.5246926,5.70294113 75.0313493,5.96165427 C74.5379937,6.22039934 73.9995206,6.6116132 73.4159284,7.13529586 L73.4159284,12.3441443 C73.4159238,13.1920244 73.4821053,13.6970018 73.6144714,13.8591085 C73.7468298,14.0211993 74.1830234,14.1271903 74.9230522,14.1770656 L75.0945213,14.1864022 L75.0945213,14.7662165 L69.9684921,14.7662165 L69.9684921,14.1864022 L70.1399628,14.1770656 C70.8679532,14.1271903 71.299634,14.0196352 71.4350066,13.8544322 C71.5703746,13.6892133 71.6380594,13.185784 71.6380624,12.3441443 L71.6380624,7.03241708 C71.6380594,6.19077741 71.5703746,5.6889122 71.4350066,5.52680551 C71.299634,5.36473074 70.8679532,5.25562753 70.1399628,5.19951183 L69.9684921,5.19015922 L69.9684921,4.61034491 L73.4159284,4.61034491 L73.4159284,6.51808704 Z M88.279607,13.3728204 C87.2207028,14.4576121 86.17384,15 85.1390124,15 C84.3087362,15 83.6168438,14.727242 83.063332,14.1817259 C82.5098156,13.6362258 82.2330589,12.9520005 82.2330589,12.1290501 C82.2330589,11.1689546 82.5940453,10.3896551 83.3160228,9.79115151 C84.1402752,9.10536217 85.5360953,8.76247547 87.5034832,8.76247547 L87.8734953,8.76247547 L87.8734953,7.5 C87.8734891,5.89776601 87.2868843,5.09664902 86.1136792,5.09663306 C85.5661773,5.09664902 85.0818519,5.27120458 84.6607032,5.62033167 C84.4140254,5.8322977 84.2575965,6.26559833 84.191418,6.92020165 L84.1823939,7.09788539 L82.9730846,7.09788539 L82.9730846,5.23690634 C84.2245065,4.66958878 85.3856825,4.38591405 86.4566189,4.38591405 C88.5864394,4.38591405 89.6513535,5.39901303 89.6513612,7.42519503 L89.6513612,11.9513664 C89.6513535,12.761852 89.7190383,13.3322977 89.8544171,13.6627196 C89.9897789,13.9931414 90.2259247,14.1583603 90.562856,14.1583603 C90.6831761,14.1583603 90.8426131,14.1303025 91.0411653,14.0741868 L91.0953131,14.7662165 C90.6681344,14.9220669 90.2860901,15 89.9491773,15 C89.0707647,15 88.5142418,14.4576121 88.279607,13.3728204 L88.279607,13.3728204 Z M87.8734953,13.1670788 L87.8734953,9.34227382 L87.4583595,9.34227382 C86.411489,9.34227382 85.5932512,9.56672065 85.0036414,10.0155824 C84.4140254,10.464476 84.1192204,11.0816689 84.1192204,11.8672088 C84.1192204,12.4532476 84.3027202,12.9395357 84.6697273,13.3260573 C85.0367283,13.7125949 85.4939797,13.9058557 86.0414816,13.9058557 C86.5588923,13.9058557 87.169563,13.6596073 87.8734953,13.1670788 L87.8734953,13.1670788 Z M95.147404,4.61034491 L95.147404,12.3441443 C95.1473994,13.1920244 95.2135809,13.6970018 95.345947,13.8591085 C95.4783054,14.0211993 95.914499,14.1271903 96.6545278,14.1770656 L96.8259969,14.1864022 L96.8259969,14.7662165 L91.6999678,14.7662165 L91.6999678,14.1864022 L91.8714384,14.1770656 C92.5994289,14.1271903 93.0311096,14.0196352 93.1664822,13.8544322 C93.3018502,13.6892133 93.369535,13.185784 93.3695381,12.3441443 L93.3695381,7.03241708 C93.369535,6.19077741 93.3018502,5.6889122 93.1664822,5.52680551 C93.0311096,5.36473074 92.5994289,5.25562753 91.8714384,5.19951183 L91.6999678,5.19015922 L91.6999678,4.61034491 L95.147404,4.61034491 Z M93.3695381,2.76808704 L93.3695381,0.92581322 L95.147404,0.92581322 L95.147404,2.76808704 L93.3695381,2.76808704 Z M100.814914,7.37843195 L100.814914,12.3441443 C100.814911,13.185784 100.885604,13.6907774 101.026994,13.8591085 C101.168378,14.0274397 101.600059,14.1334147 102.32204,14.1770656 L102.710102,14.1864022 L102.710102,14.7662165 L97.3674796,14.7662165 L97.3674796,14.1864022 L97.5389487,14.1770656 C98.2669392,14.1271903 98.6986215,14.0196352 98.8339926,13.8544322 C98.9693621,13.6892133 99.0370468,13.185784 99.0370484,12.3441443 L99.0370484,7.03241708 C99.0370468,6.19077741 98.9693621,5.6889122 98.8339926,5.52680551 C98.6986215,5.36473074 98.2669392,5.25562753 97.5389487,5.19951183 L97.3674796,5.19015922 L97.3674796,4.61034491 L100.814914,4.61034491 L100.814914,6.51808704 C101.627133,5.09664902 102.689038,4.38591405 104.000634,4.38591405 C104.18112,4.38591405 104.382672,4.42021229 104.605289,4.48877686 L104.605289,7.26621652 L103.603547,7.26621652 L103.594522,7.09788539 C103.528335,6.51808704 103.469674,6.17363626 103.418541,6.06453305 C103.367395,5.95542984 103.230519,5.90087823 103.007916,5.90087823 C102.117474,5.90087823 101.386474,6.39340678 100.814914,7.37843195 L100.814914,7.37843195 Z M114,14.3079862 C112.868897,14.7693287 111.837074,15 110.904528,15 C109.466589,15 108.297892,14.4981348 107.398432,13.4943884 C106.49897,12.490658 106.049241,11.1876599 106.049241,9.58540992 C106.049241,8.0642213 106.452343,6.81733883 107.25855,5.84476254 C108.064753,4.8722022 109.099585,4.38591405 110.363046,4.38591405 C111.530234,4.38591405 112.42819,4.79426905 113.056918,5.61097906 C113.685631,6.42768906 114,7.59352616 114,9.10847439 L114,9.28615813 L108.016624,9.28615813 C108.016622,10.8634784 108.28285,12.0542452 108.81531,12.8584744 C109.347763,13.6627196 110.137423,14.0648342 111.184294,14.0648342 C112.2853,14.0648342 113.223869,13.8310507 114,13.3634678 L114,14.3079862 Z M108.052723,8.70635978 L112.113838,8.70635978 L112.122863,8.29489256 C112.122863,7.11659063 111.975452,6.26559833 111.680653,5.74189972 C111.385839,5.21821707 110.904523,4.95635978 110.236701,4.95635978 C109.568868,4.95635978 109.037916,5.29615021 108.643841,5.9756832 C108.24976,6.65524811 108.052723,7.56546831 108.052723,8.70635978 L108.052723,8.70635978 Z"/>
		</g>
	</g>
</svg>

<svg xmlns="http://www.w3.org/2000/svg" width="114" height="15"><path d="M4.548 14.944 1.697 3.404c-.271-1.06-.446-1.64-.524-1.74-.078-.1-.406-.149-.983-.149L0 1.496v-.57h4.783v.57h-.171c-.584 0-.954.031-1.11.094-.157.062-.235.206-.235.43 0 .206.087.667.262 1.384l1.976 8.052L8.582 1.094h.632l3.078 10.652 2.31-8.333c.259-.947.388-1.477.388-1.59 0-.218-.47-.327-1.408-.327h-.162v-.57h3.673v.57l-.163.019c-.643.037-1 .097-1.07.178-.068.08-.26.651-.572 1.711l-3.267 11.54h-.605L8.266 4.292 5.172 14.944h-.623zM20.892 4.61v7.734c0 .848.066 1.353.199 1.515.132.162.568.268 1.308.318l.172.01v.58h-5.126v-.58l.171-.01c.728-.05 1.16-.157 1.295-.323.136-.165.203-.668.203-1.51V7.032c0-.841-.067-1.343-.203-1.505-.135-.162-.567-.271-1.295-.327l-.171-.01v-.58h3.447zm-1.778-1.842V.926h1.778v1.842h-1.778zm7.446 7.004v2.572c0 .836.061 1.339.185 1.51.123.172.489.28 1.096.323l.172.01v.58h-4.9v-.58l.17-.01c.729-.05 1.16-.157 1.296-.323.135-.165.203-.668.203-1.51V2.422c0-.842-.068-1.345-.203-1.51-.136-.165-.567-.273-1.295-.323l-.172-.01V0h3.448v9.314h.424l2.274-2.263c.975-1.029 1.462-1.58 1.462-1.655 0-.119-.165-.182-.496-.192-.331-.01-.56-.014-.686-.014h-.19v-.58h3.818v.58l-.172.01c-.637.043-1.045.123-1.223.238-.177.115-.741.66-1.692 1.632l-1.714 1.749 2.942 3.581c.746.873 1.213 1.38 1.403 1.52.19.14.519.226.988.257l.172.01v.58h-2.753l-4.133-4.995h-.424zm13.807 4.938c-.45.193-.88.29-1.29.29-1.04 0-1.8-.271-2.279-.814-.478-.542-.717-1.405-.717-2.59V5.368h-1.444V4.61h1.444V2.768l1.787-.458v2.3h2.725v.758h-2.725v6.471c0 .873.11 1.493.334 1.861.222.368.601.552 1.137.552.282 0 .625-.097 1.028-.29v.748zm4.53-10.1v7.734c0 .848.067 1.353.2 1.515.132.162.568.268 1.308.318l.171.01v.58H41.45v-.58l.172-.01c.728-.05 1.16-.157 1.295-.323.135-.165.203-.668.203-1.51V7.032c0-.841-.068-1.343-.203-1.505-.135-.162-.567-.271-1.295-.327l-.172-.01v-.58h3.448zM43.12 2.768V.926h1.778v1.842H43.12zM52.352 15c-1.444 0-2.584-.475-3.42-1.426-.836-.95-1.255-2.246-1.255-3.886 0-1.64.419-2.933 1.255-3.88.836-.948 1.976-1.422 3.42-1.422 1.45 0 2.592.474 3.425 1.421.833.948 1.25 2.242 1.25 3.881 0 1.64-.418 2.935-1.254 3.886-.837.95-1.977 1.426-3.42 1.426zm0-.58c.8 0 1.465-.447 1.995-1.342.53-.894.794-2.024.794-3.39 0-1.353-.265-2.48-.794-3.38-.53-.901-1.195-1.352-1.995-1.352-.794 0-1.456.45-1.985 1.352-.53.9-.794 2.027-.794 3.38 0 1.366.263 2.496.79 3.39.526.895 1.19 1.342 1.99 1.342zm9.368-7.902c.451-.71.972-1.244 1.561-1.6a3.754 3.754 0 0 1 1.977-.532c.842 0 1.504.287 1.985.86.475.574.713 1.362.713 2.366v4.732c.042.93.111 1.453.208 1.571.096.119.529.206 1.3.262l.162.01v.58h-5.117v-.58l.162-.01c.77-.056 1.203-.143 1.3-.262.096-.118.165-.642.207-1.57V7.901c0-.873-.11-1.479-.33-1.819-.219-.34-.611-.51-1.177-.51-.397 0-.842.13-1.336.389-.493.258-1.031.65-1.615 1.173v5.21c0 .847.066 1.352.198 1.514.133.162.569.268 1.309.318l.172.01v.58h-5.127v-.58l.172-.01c.728-.05 1.16-.157 1.295-.323.135-.165.203-.668.203-1.51V7.032c0-.841-.068-1.343-.203-1.505-.135-.162-.567-.271-1.295-.327l-.172-.01v-.58h3.448v1.908zm11.696 0c.451-.71.972-1.244 1.561-1.6a3.754 3.754 0 0 1 1.977-.532c.842 0 1.504.287 1.985.86.475.574.713 1.362.713 2.366v4.732c.042.93.111 1.453.208 1.571.096.119.529.206 1.3.262l.162.01v.58h-5.117v-.58l.162-.01c.77-.056 1.203-.143 1.3-.262.096-.118.165-.642.207-1.57V7.901c0-.873-.11-1.479-.33-1.819-.219-.34-.611-.51-1.177-.51-.397 0-.842.13-1.336.389-.493.258-1.031.65-1.615 1.173v5.21c0 .847.066 1.352.198 1.514.133.162.569.268 1.31.318l.17.01v.58h-5.126v-.58l.172-.01c.728-.05 1.16-.157 1.295-.323.135-.165.203-.668.203-1.51V7.032c0-.841-.068-1.343-.203-1.505-.135-.162-.567-.271-1.295-.327l-.172-.01v-.58h3.448v1.908zm14.864 6.855C87.22 14.458 86.174 15 85.139 15c-.83 0-1.522-.273-2.076-.818-.553-.546-.83-1.23-.83-2.053 0-.96.361-1.74 1.083-2.338.824-.686 2.22-1.029 4.187-1.029h.37V7.5c0-1.602-.586-2.403-1.76-2.403-.547 0-1.031.174-1.452.523-.247.212-.403.646-.47 1.3l-.009.178h-1.209V5.237c1.252-.567 2.413-.851 3.484-.851 2.13 0 3.194 1.013 3.194 3.04v4.525c0 .81.068 1.381.203 1.712.136.33.372.495.709.495.12 0 .28-.028.478-.084l.054.692c-.427.156-.809.234-1.146.234-.878 0-1.435-.542-1.67-1.627zm-.407-.206V9.342h-.415c-1.047 0-1.865.225-2.454.674-.59.448-.885 1.066-.885 1.851 0 .586.184 1.073.55 1.46.368.386.825.579 1.372.579.518 0 1.129-.246 1.832-.739zm7.274-8.557v7.734c0 .848.067 1.353.199 1.515.132.162.568.268 1.309.318l.171.01v.58H91.7v-.58l.171-.01c.728-.05 1.16-.157 1.295-.323.136-.165.204-.668.204-1.51V7.032c0-.841-.068-1.343-.204-1.505-.135-.162-.567-.271-1.295-.327l-.171-.01v-.58h3.447zM93.37 2.768V.926h1.777v1.842H93.37zm7.445 4.61v4.966c0 .842.07 1.347.212 1.515.141.168.573.274 1.295.318l.388.01v.58h-5.343v-.58l.172-.01c.728-.05 1.16-.157 1.295-.323.135-.165.203-.668.203-1.51V7.032c0-.841-.068-1.343-.203-1.505-.135-.162-.567-.271-1.295-.327l-.172-.01v-.58h3.448v1.908c.812-1.421 1.874-2.132 3.186-2.132.18 0 .382.034.604.103v2.777h-1.001l-.01-.168c-.066-.58-.124-.924-.175-1.033-.052-.11-.188-.164-.411-.164-.89 0-1.622.492-2.193 1.477zM114 14.308c-1.131.461-2.163.692-3.095.692-1.438 0-2.607-.502-3.507-1.506-.899-1.003-1.349-2.306-1.349-3.909 0-1.52.403-2.768 1.21-3.74.806-.973 1.84-1.46 3.104-1.46 1.167 0 2.065.41 2.694 1.226.629.817.943 1.983.943 3.497v.178h-5.983c0 1.577.266 2.768.798 3.572.533.805 1.322 1.207 2.37 1.207 1.1 0 2.039-.234 2.815-.702v.945zm-5.947-5.602h4.06l.01-.411c0-1.178-.148-2.03-.442-2.553-.295-.524-.776-.786-1.444-.786-.668 0-1.2.34-1.593 1.02-.394.68-.591 1.59-.591 2.73z" fill="#4D4D4D" fill-rule="nonzero"/></svg>
